assets/img/ballons.svg

<svg width="383" height="783" viewBox="0 0 383 783" fill="none" xmlns="http://www.w3.org/2000/svg">
<path opacity="0.04" d="M164.049 622.876C140.396 638.168 114.146 647.065 88.1988 654.398C65.3869 660.846 42.5044 666.234 19.5512 670.562C13.184 671.767 6.82335 672.884 0.46944 673.913L-3.92863 674.612C-7.83562 675.238 -11.7489 675.816 -15.6684 676.344L-16.1416 676.41C-19.9725 676.952 -23.7965 677.457 -27.6135 677.927C-40.1149 679.479 -52.8767 680.668 -65.039 680.05C-69.1876 679.843 -73.2691 679.433 -77.2374 678.752C-79.3874 678.387 -81.5067 677.939 -83.5954 677.408C-87.0159 676.536 -90.33 675.442 -93.5418 674.052C-94.0812 673.824 -94.6172 673.584 -95.146 673.337C-98.362 671.843 -101.371 670.086 -104.206 668.105C-114.591 660.84 -122.511 650.548 -128.594 638.978C-131.634 633.195 -134.212 627.09 -136.408 620.886C-136.681 620.126 -136.944 619.362 -137.239 618.624C-144.454 597.238 -148.271 574.221 -155.908 553.053C-158.538 545.755 -161.616 538.711 -165.142 531.92C-166.864 528.609 -168.677 525.359 -170.58 522.17C-175.089 514.694 -180.16 507.624 -185.741 501.011C-193.226 492.055 -201.998 483.844 -212.632 478.812C-214.047 478.14 -215.497 477.529 -216.98 476.978C-218.86 476.277 -220.798 475.683 -222.796 475.195C-228.259 473.959 -234.144 473.321 -240.397 473.286C-241.613 473.261 -242.83 473.25 -244.053 473.247C-247.892 473.238 -251.748 473.297 -255.577 473.271C-262.594 473.349 -269.194 472.733 -275.312 471.426C-278.599 470.647 -281.696 469.609 -284.587 468.319C-292.28 464.946 -299.007 459.906 -304.953 454.038C-307.793 451.182 -310.515 448.201 -313.034 445.082L-313.12 444.995C-313.98 443.93 -314.83 442.848 -315.651 441.737C-319.446 436.734 -322.907 431.427 -325.967 425.851C-336.448 406.746 -342.359 384.619 -341.278 361.019C-339.822 328.978 -324.557 294.375 -298.142 271.032C-279.116 254.211 -255.922 244.151 -233.41 234.106C-191.501 215.388 -149.626 195.253 -111.159 168.321C-79.939 146.458 -50.4107 119.839 -15.9188 106.661C-4.8749 102.444 6.44013 99.8423 17.6027 98.8134C25.9201 98.0705 33.8059 98.1192 41.1819 98.9589C49.5399 99.8865 57.3549 101.619 64.564 104.143C70.8228 106.319 76.66 109.028 82.0467 112.254C84.9771 114.004 87.8009 115.916 90.4892 117.993C92.5696 119.581 94.5657 121.271 96.4775 123.061L96.7625 123.347C97.9336 124.44 99.0619 125.575 100.147 126.752C108.122 135.278 114.802 145.047 120.126 155.968C123.523 162.738 126.499 169.841 129.162 177.044C130.756 181.34 132.259 185.672 133.671 190.042C134.102 191.374 134.526 192.714 134.932 194.05C144.591 225.528 147.637 258.643 155.098 290.806C155.134 290.971 155.168 291.133 155.219 291.285C156.811 297.825 158.887 304.01 161.438 309.813C163.289 314.101 165.373 318.294 167.638 322.414C171.09 328.74 174.946 334.874 178.995 340.888L179.889 342.215C185.827 351.042 192.194 359.573 198.17 368.067C200.289 371.084 202.373 374.093 204.35 377.137C205.623 379.046 206.864 380.96 208.071 382.878C208.932 384.259 209.798 385.643 210.649 387.041C211.5 388.44 212.402 389.918 213.264 391.37C213.829 392.31 214.384 393.252 214.927 394.213C218.282 399.971 221.484 405.86 224.443 411.89C226.243 415.557 227.958 419.279 229.562 423.047C230.723 425.776 231.825 428.53 232.867 431.309C233.649 433.361 234.385 435.434 235.077 437.528C240.76 454.475 243.97 472.43 243.143 491.476C241.055 540.874 209.283 593.634 164.049 622.876Z" fill="#EE4744"/>
<path d="M88.9539 650L86 645.184C91.815 638.792 92.0905 599.285 89.1819 577.86C87.1638 562.996 86.8569 550.251 88.2431 538.894C90.4502 520.813 96.9206 507.424 107.475 499.102C129.37 481.837 142.498 434.476 142.628 434L147 436.137C146.447 438.167 133.18 486.065 109.837 504.472C94.3204 516.707 88.912 541.023 93.7611 576.746C96.0468 593.579 97.972 640.087 88.9539 650Z" fill="#D4D5E0"/>
<path d="M216.712 417.19C231.387 382.377 218.784 344.506 188.56 332.601C158.337 320.697 121.94 339.269 107.264 374.081C93.0154 407.883 104.485 444.565 132.827 457.565C130.922 460.937 128.051 463.706 124.558 465.539C118.42 468.309 138.368 470.978 138.368 470.978C138.396 467.343 139.033 463.736 140.252 460.298C169.423 468.562 202.811 450.165 216.712 417.19Z" fill="#EE706E"/>
<path opacity="0.2" d="M114.19 407.668C114.847 392.461 123.999 380.39 134.943 379.852C134.471 379.787 133.993 379.742 133.51 379.721C121.94 379.217 112.004 391.674 111.318 407.543C110.652 422.951 118.951 435.91 130.025 437.112C129.828 438.265 113.525 423.05 114.19 407.668Z" fill="white"/>
<path d="M-6.1914 648L-9 644.321C-3.47095 639.438 -3.20903 609.259 -5.97455 592.893C-7.89341 581.539 -8.18522 571.802 -6.86719 563.127C-4.76864 549.315 1.38357 539.088 11.4189 532.731C32.2373 519.542 44.7192 483.364 44.8427 483L49 484.633C48.4739 486.183 35.8599 522.772 13.6645 536.833C-1.08883 546.179 -6.2312 564.754 -1.62059 592.042C0.552654 604.901 2.38325 640.428 -6.1914 648Z" fill="#D4D5E0"/>
<path d="M96.3712 470.288C107.069 444.91 97.8814 417.303 75.8496 408.625C53.8179 399.948 27.2852 413.485 16.5871 438.863C6.20002 463.503 14.5608 490.244 35.2216 499.72C33.8331 502.178 31.74 504.197 29.1938 505.533C24.7194 507.553 39.2605 509.498 39.2605 509.498C39.2814 506.848 39.7453 504.219 40.6341 501.712C61.899 507.737 86.2381 494.326 96.3712 470.288Z" fill="#EE706E"/>
<path opacity="0.2" d="M21.6354 463.347C22.1146 452.261 28.786 443.462 36.7643 443.07C36.4197 443.022 36.0716 442.989 35.7197 442.974C27.285 442.607 20.0419 451.687 19.5419 463.256C19.0564 474.488 25.1064 483.935 33.179 484.81C33.0352 485.651 21.1508 474.56 21.6354 463.347Z" fill="white"/>
</svg>

<svg width="383" height="783" viewBox="0 0 383 783" fill="none" xmlns="http://www.w3.org/2000/svg"><path opacity=".04" d="M164.049 622.876c-23.653 15.292-49.903 24.189-75.85 31.522a791.394 791.394 0 0 1-68.648 16.164A731.485 731.485 0 0 1 .47 673.913l-4.398.699a475.24 475.24 0 0 1-11.74 1.732l-.473.066c-3.83.542-7.655 1.047-11.471 1.517-12.502 1.552-25.264 2.741-37.426 2.123-4.149-.207-8.23-.617-12.198-1.298a80.43 80.43 0 0 1-6.358-1.344c-3.42-.872-6.735-1.966-9.947-3.356a47.454 47.454 0 0 1-1.604-.715 59.704 59.704 0 0 1-9.06-5.232c-10.385-7.265-18.305-17.557-24.388-29.127-3.04-5.783-5.618-11.888-7.814-18.092-.273-.76-.536-1.524-.831-2.262-7.215-21.386-11.032-44.403-18.669-65.571a173.318 173.318 0 0 0-9.234-21.133 191.05 191.05 0 0 0-5.438-9.75 164.628 164.628 0 0 0-15.161-21.159c-7.485-8.956-16.257-17.167-26.891-22.199a53.847 53.847 0 0 0-4.348-1.834 51.82 51.82 0 0 0-5.816-1.783c-5.463-1.236-11.348-1.874-17.601-1.909a201.873 201.873 0 0 0-3.656-.039c-3.839-.009-7.695.05-11.524.024-7.017.078-13.617-.538-19.735-1.845-3.287-.779-6.384-1.817-9.275-3.107-7.693-3.373-14.42-8.413-20.366-14.281-2.84-2.856-5.562-5.837-8.081-8.956l-.086-.087a96.14 96.14 0 0 1-2.531-3.258 128.977 128.977 0 0 1-10.316-15.886c-10.481-19.105-16.392-41.232-15.311-64.832 1.456-32.041 16.721-66.644 43.136-89.987 19.026-16.821 42.22-26.881 64.732-36.926 41.909-18.718 83.784-38.853 122.251-65.785 31.22-21.863 60.748-48.482 95.24-61.66 11.044-4.217 22.36-6.819 33.522-7.848 8.317-.743 16.203-.694 23.579.146 8.358.927 16.173 2.66 23.382 5.184 6.259 2.176 12.096 4.885 17.483 8.111a85.523 85.523 0 0 1 8.442 5.739 78.02 78.02 0 0 1 5.989 5.068l.285.286a63.934 63.934 0 0 1 3.384 3.405c7.975 8.526 14.655 18.295 19.979 29.216 3.397 6.77 6.373 13.873 9.036 21.076a321.61 321.61 0 0 1 4.509 12.998c.431 1.332.855 2.672 1.261 4.008 9.659 31.478 12.705 64.593 20.166 96.756.036.165.07.327.121.479 1.592 6.54 3.668 12.725 6.219 18.528 1.851 4.288 3.935 8.481 6.2 12.601 3.452 6.326 7.308 12.46 11.357 18.474l.894 1.327c5.938 8.827 12.305 17.358 18.281 25.852 2.119 3.017 4.203 6.026 6.18 9.07a258.832 258.832 0 0 1 3.721 5.741c.861 1.381 1.727 2.765 2.578 4.163.851 1.399 1.753 2.877 2.615 4.329a122.2 122.2 0 0 1 1.663 2.843c3.355 5.758 6.557 11.647 9.516 17.677 1.8 3.667 3.515 7.389 5.119 11.157a204.54 204.54 0 0 1 3.305 8.262 146.88 146.88 0 0 1 2.21 6.219c5.683 16.947 8.893 34.902 8.066 53.948-2.088 49.398-33.86 102.158-79.094 131.4z" fill="#EE4744"/><path d="M88.954 650L86 645.184c5.815-6.392 6.09-45.899 3.182-67.324-2.018-14.864-2.325-27.609-.939-38.966 2.207-18.081 8.678-31.47 19.232-39.792 21.895-17.265 35.023-64.626 35.153-65.102l4.372 2.137c-.553 2.03-13.82 49.928-37.163 68.335-15.517 12.235-20.925 36.551-16.076 72.274 2.286 16.833 4.211 63.341-4.807 73.254z" fill="#D4D5E0"/><path d="M216.712 417.19c14.675-34.813 2.072-72.684-28.152-84.589-30.223-11.904-66.62 6.668-81.296 41.48-14.249 33.802-2.779 70.484 25.563 83.484-1.905 3.372-4.776 6.141-8.269 7.974-6.138 2.77 13.81 5.439 13.81 5.439a32.704 32.704 0 0 1 1.884-10.68c29.171 8.264 62.559-10.133 76.46-43.108z" fill="#EE706E"/><path opacity=".2" d="M114.19 407.668c.657-15.207 9.809-27.278 20.753-27.816-.472-.065-.95-.11-1.433-.131-11.57-.504-21.506 11.953-22.192 27.822-.666 15.408 7.633 28.367 18.707 29.569-.197 1.153-16.5-14.062-15.835-29.444z" fill="#fff"/><path d="M-6.191 648L-9 644.321c5.529-4.883 5.791-35.062 3.025-51.428-1.918-11.354-2.21-21.091-.892-29.766 2.098-13.812 8.25-24.039 18.286-30.396 20.818-13.189 33.3-49.367 33.424-49.731L49 484.633c-.526 1.55-13.14 38.139-35.335 52.2-14.754 9.346-19.896 27.921-15.286 55.209C.553 604.901 2.383 640.428-6.19 648z" fill="#D4D5E0"/><path d="M96.371 470.288c10.698-25.378 1.51-52.985-20.521-61.663-22.032-8.677-48.565 4.86-59.263 30.238-10.387 24.64-2.026 51.381 18.635 60.857a14.81 14.81 0 0 1-6.028 5.813c-4.475 2.02 10.067 3.965 10.067 3.965.02-2.65.484-5.279 1.373-7.786 21.265 6.025 45.604-7.386 55.737-31.424z" fill="#EE706E"/><path opacity=".2" d="M21.635 463.347c.48-11.086 7.151-19.885 15.13-20.277a10.946 10.946 0 0 0-1.045-.096c-8.435-.367-15.678 8.713-16.178 20.282-.486 11.232 5.564 20.679 13.637 21.554-.144.841-12.028-10.25-11.544-21.463z" fill="#fff"/></svg>
